X:322
T:Yellow Wattle, The  
B:CRE 2.026 (Chleith BhuÃÂÃÂÃÂÃÂ­)
F:file ID: cre.2/322yell_w
Q:160
L:1/8
M:6/8
R:jig % A-B-A
K:G
z3|:BA|GGG AEE|AGG GED|GGG AEE|AGG GED|
"5"GGG AEE|AGG GED|EAA ABc|dcA G:|
|:BB|"9"AFF DEE|DFF DEE|AFF DEE|DEF GBB|
"13"AFF DEE|DFF DFF|A3 ABc|dcA G:|
|:BA|"17"BAG EGG|EGG G2A|BAG EGG|GAG GED|
"21"BAG EGG|EGG EGG|A3 ABc|1 dcA G:|2 dcA HG3|]

%%%

